svgs/sharp-light/square-r.svg

<svg xmlns="http://www.w3.org/2000/svg" viewBox="0 0 448 512"><!--! Font Awesome Pro 6.6.0 by @fontawesome - https://fontawesome.com License - https://fontawesome.com/license (Commercial License) Copyright 2024 Fonticons, Inc. --><path d="M32 64l0 384 384 0 0-384L32 64zM0 32l32 0 384 0 32 0 0 32 0 384 0 32-32 0L32 480 0 480l0-32L0 64 0 32zm128 96l16 0 96 0c44.2 0 80 35.8 80 80l0 16-1.6 0c-5.7 28-25.9 50.6-52.5 59.7L327.2 384l-37.5 0L231 288l-7 0-64 0 0 80 0 16-32 0 0-16 0-96 0-128 0-16zm32 128l64 0 16 0c26.5 0 48-21.5 48-48s-21.5-48-48-48l-80 0 0 96z"/></svg>

<svg xmlns="http://www.w3.org/2000/svg" viewBox="0 0 448 512"><!--! Font Awesome Pro 6.4.0 by @fontawesome - https://fontawesome.com License - https://fontawesome.com/license (Commercial License) Copyright 2023 Fonticons, Inc. --><path d="M32 64V448H416V64H32zM0 32H32 416h32V64 448v32H416 32 0V448 64 32zm128 96h16 96c44.2 0 80 35.8 80 80c0 35.1-22.6 64.9-54.1 75.7L327.2 384H289.7L231 288H160v80 16H128V368 272 144 128zm32 128h80c26.5 0 48-21.5 48-48s-21.5-48-48-48H160v96z"/></svg>
